X:21
T:Hole in the Wall Clog Dance (Craig 21)
M:C
L:1/8
B:Empire Violin Collection of Hornpipes
H:Published by Thomas Craig
H:Music Publisher, &c.
H:George Street, Aberdeen, N.B.
Z:Peter Dunk December 2011
R:hornpipe
Q:1/4=160
K:C
A,2B,2 C<A, z B, | (C2.D2) E4 | A2c2 (3FGF E2 | A2c2 (3FGF E2 |!
A,2B,2 C<A, z B, | (C2.D2) E4 | A>Bc>d e2a2 | g>ab>g a2 z2 :|!
(3cdc G2 (3cdc G2 | (3cdc G2 c>cB>c | (3cdc G2 (3cdc G2 | (3cdc G2 d>dc>d |!
e2e2 (3FGF E2 | (3FGF E2 (3FGF E2 | E>FE>F E>DC>B, |]!
|:A,<A, z B, C>A,B,>C | D<D z E F>DE>F | E>^GB>c d>BG>B |1A>cB>^G A>GC>B, :|2A>AE>C A,4 |]
